src/icons/trigger-schedule.svg

<?xml version="1.0" encoding="UTF-8"?>
<svg width="32px" height="32px" viewBox="0 0 32 32" version="1.1" xmlns="http://www.w3.org/2000/svg" xmlns:xlink="http://www.w3.org/1999/xlink">
    <!-- Generator: Sketch 59 (86127) - https://sketch.com -->
    <title>HDL/Icon/Standard/Trigger/triggerschedule</title>
    <desc>Created with Sketch.</desc>
    <g id="Colors" stroke="none" stroke-width="1" fill="none" fill-rule="evenodd">
        <g id="Trigger-Icons" transform="translate(-100.000000, -335.000000)">
            <g id="HDL/Icon/Standard/Trigger/triggerschedule" transform="translate(100.000000, 335.000000)">
                <g id="TriggerSchedule">
                    <circle id="Oval" fill="#C6F2D5" fill-rule="nonzero" cx="16" cy="16" r="16"></circle>
                    <g id="calendar-(1)" transform="translate(8.000000, 7.000000)" fill="#32BA66" fill-rule="nonzero">
                        <path d="M11,3 C11.6,3 12,2.5 12,2 L12,1 C12,0.4 11.6,0 11,0 C10.4,0 10,0.4 10,1 L10,2 C10,2.5 10.4,3 11,3 Z M14,1 L13,1 L13,2 C13,3.1 12.1,4 11,4 C9.9,4 9,3.1 9,2 L9,1 L6,1 L6,2 C6,3.1 5.1,4 4,4 C2.9,4 2,3.1 2,2 L2,1 L1,1 C0.4,1 0,1.5 0,2 L0,14 C0,14.6 0.4,15 1,15 L14,15 C14.6,15 15,14.6 15,14 L15,2 C15,1.4 14.5,1 14,1 Z M5,13 L2,13 L2,10 L5,10 L5,13 Z M5,9 L2,9 L2,6 L5,6 L5,9 Z M9,13 L6,13 L6,10 L9,10 L9,13 Z M9,9 L6,9 L6,6 L9,6 L9,9 Z M13,13 L10,13 L10,10 L13,10 L13,13 Z M13,9 L10,9 L10,6 L13,6 L13,9 Z M4,3 C4.6,3 5,2.5 5,2 L5,1 C5,0.4 4.6,0 4,0 C3.4,0 3,0.4 3,1 L3,2 C3,2.5 3.4,3 4,3 Z" id="Shape"></path>
                    </g>
                    <circle id="Oval" fill="#C6F2D5" fill-rule="nonzero" cx="20.5" cy="21.5" r="5"></circle>
                    <g id="time" transform="translate(15.000000, 16.000000)" fill="#27915E" fill-rule="nonzero">
                        <path d="M6.3,5.87045455 L6.3,3.32954545 C6.3,3.07954545 6.12,2.875 5.9,2.875 C5.68,2.875 5.5,3.07954545 5.5,3.32954545 L5.5,6.05681818 C5.5,6.18409091 5.544,6.29772727 5.616,6.37954545 L6.816,7.74318182 C6.888,7.825 6.988,7.875 7.1,7.875 C7.32,7.875 7.5,7.67045455 7.5,7.42045455 C7.5,7.29318182 7.456,7.17954545 7.384,7.09772727 L6.3,5.87045455 Z M5.5,0 C2.464,0 0,2.464 0,5.5 C0,8.536 2.464,11 5.5,11 C8.536,11 11,8.536 11,5.5 C11,2.464 8.536,0 5.5,0 Z M5.5,9.625 C3.2209375,9.625 1.375,7.7790625 1.375,5.5 C1.375,3.2209375 3.2209375,1.375 5.5,1.375 C7.7790625,1.375 9.625,3.2209375 9.625,5.5 C9.625,7.7790625 7.7790625,9.625 5.5,9.625 Z" id="Shape"></path>
                    </g>
                </g>
            </g>
        </g>
    </g>
</svg>

<?xml version="1.0" encoding="utf-8"?>
<!-- Generator: Adobe Illustrator 20.1.0, SVG Export Plug-In . SVG Version: 6.00 Build 0)  -->
<svg version="1.1" id="Layer_1" xmlns="http://www.w3.org/2000/svg" xmlns:xlink="http://www.w3.org/1999/xlink" x="0px" y="0px"
	 viewBox="0 0 32 32" style="enable-background:new 0 0 32 32;" xml:space="preserve">
<style type="text/css">
	.st0{fill:#C6F2D5;}
	.st1{fill:#32BA66;}
	.st2{fill:#27915E;}
</style>
<title>HDL/Icon/Standard/Trigger/triggerschedule</title>
<desc>Created with Sketch.</desc>
<g id="Colors">
	<g id="Trigger-Icons" transform="translate(-100.000000, -335.000000)">
		<g id="HDL_x2F_Icon_x2F_Standard_x2F_Trigger_x2F_triggerschedule" transform="translate(100.000000, 335.000000)">
			<g id="TriggerSchedule">
				<circle id="Oval" class="st0" cx="16" cy="16" r="16"/>
				<g id="calendar-_x28_1_x29_" transform="translate(8.000000, 7.000000)">
					<path id="Shape" class="st1" d="M11,3c0.6,0,1-0.5,1-1V1c0-0.6-0.4-1-1-1s-1,0.4-1,1v1C10,2.5,10.4,3,11,3z M14,1h-1v1
						c0,1.1-0.9,2-2,2S9,3.1,9,2V1H6v1c0,1.1-0.9,2-2,2S2,3.1,2,2V1H1C0.4,1,0,1.5,0,2v12c0,0.6,0.4,1,1,1h13c0.6,0,1-0.4,1-1V2
						C15,1.4,14.5,1,14,1z M5,13H2v-3h3V13z M5,9H2V6h3V9z M9,13H6v-3h3V13z M9,9H6V6h3V9z M13,13h-3v-3h3V13z M13,9h-3V6h3V9z M4,3
						c0.6,0,1-0.5,1-1V1c0-0.6-0.4-1-1-1S3,0.4,3,1v1C3,2.5,3.4,3,4,3z"/>
				</g>
				<circle id="Oval_1_" class="st0" cx="20.5" cy="21.5" r="5"/>
				<g id="time" transform="translate(15.000000, 16.000000)">
					<path id="Shape_1_" class="st2" d="M6.3,5.9V3.3c0-0.2-0.2-0.5-0.4-0.5c-0.2,0-0.4,0.2-0.4,0.5v2.7c0,0.1,0,0.2,0.1,0.3
						l1.2,1.4C6.9,7.8,7,7.9,7.1,7.9c0.2,0,0.4-0.2,0.4-0.5c0-0.1,0-0.2-0.1-0.3L6.3,5.9z M5.5,0C2.5,0,0,2.5,0,5.5S2.5,11,5.5,11
						S11,8.5,11,5.5S8.5,0,5.5,0z M5.5,9.6c-2.3,0-4.1-1.8-4.1-4.1s1.8-4.1,4.1-4.1s4.1,1.8,4.1,4.1S7.8,9.6,5.5,9.6z"/>
				</g>
			</g>
		</g>
	</g>
</g>
</svg>
